X: 1
T: Forlorn, The
M: 6/8
L: 1/8
R: jig
K: Bmin
|: Bcd d2c | BGB ADE | FGF EDE | FBB B>dc | 
Bcd d2c | BGB ADE | FGF EDE |1 FBB B3 :|2 FBB Bcd||
|: e2e e>de | fdB B2c | ABc ecA | cBB Bcd |
e2e e>de | fdB B2c | ABc ecA |1 B3 Bcd:|2 B3 B3||
